src/main/resources/icons/JavaScriptLanguageIcons/icons/typescript/TypeScript_Compiler_dark.svg

<svg xmlns="http://www.w3.org/2000/svg" width="13" height="13" viewBox="0 0 13 13">
  <path fill="#AFB1B3" fill-rule="evenodd" d="M0,1 L13,1 L13,11 L0,11 L0,1 Z M2.8325344,9.02000027 L4.15746537,9.02000027 L4.15746537,4.22120005 L6,4.21999979 L6,3 L1,3 L1,4.22120005 L2.8325344,4.22120005 L2.8325344,9.02000027 Z M9.36240035,9 C10.6610004,9 11.5468004,8.41519997 11.5468004,7.20259992 C11.5468004,6.15339987 10.8294983,5.39659984 9.63760036,5.39659984 C8.57568484,5.39659984 8.33900031,5.00099982 8.33900031,4.5881998 C8.33900031,4.29579979 8.60560032,4.0999999 9.11300034,4.0999999 C9.45126702,4.0999999 10.1469335,4.0999999 11.1999998,4.0999999 L11.1999998,3 C10.4278669,3 9.74940037,3 9.16460034,3 C7.93480029,3 7,3.62059997 7,4.73000002 C7,5.92540007 7.78113007,6.56619989 9.01840034,6.56619989 C10.0626526,6.56619989 10.2310004,6.99619991 10.2310004,7.34879993 C10.2310004,7.70139994 9.90420038,7.8499999 9.36240035,7.8499999 C8.90373366,7.8499999 8.11626688,7.8499999 7,7.8499999 L7,9 C7.96720021,9 8.75466699,9 9.36240035,9 Z"/>
</svg>

<svg xmlns="http://www.w3.org/2000/svg" width="13" height="13" viewBox="0 0 13 13"><rect id="frame" width="13" height="13" fill="none"/><path fill="#AFB1B3" fill-rule="evenodd" d="M0 1h13v10H0V1zm2.833 8.02h1.324V4.221L6 4.22V3H1v1.221h1.833V9.02zM9.363 9c1.298 0 2.184-.585 2.184-1.797 0-1.05-.718-1.806-1.91-1.806-1.061 0-1.298-.396-1.298-.809 0-.292.267-.488.774-.488H11.2V3H9.165C7.935 3 7 3.62 7 4.73c0 1.195.781 1.836 2.018 1.836 1.045 0 1.213.43 1.213.783 0 .352-.327.501-.869.501H7V9h2.362z"/></svg>
